22x22/apps/openoffice4-math.svg

<svg xmlns="http://www.w3.org/2000/svg" width="22" height="22" version="1">
 <circle style="opacity:0.2" cx="11" cy="11.5" r="10"/>
 <circle style="fill:#8e8e8e" cx="11" cy="11" r="10"/>
 <path style="opacity:0.2" d="M 10.960938,8.5 9.404297,13.46875 8.2480469,10.574219 H 6 v 1.001953 h 1.59375 l 1.554688,3.919922 h 0.691406 l 1.851562,-5.988282 h 3.197266 V 8.5 Z m 0.748046,3 1.626954,1.90625 L 11.556641,15.5 h 0.888671 L 13.779297,13.929688 15.113281,15.5 h 0.888672 L 14.257812,13.445312 15.916016,11.5 H 15.027344 L 13.8125,12.923828 12.597656,11.5 Z"/>
 <path style="fill:#f4f4f7" d="M 10.960938,8 9.404297,12.96875 8.2480469,10.074219 H 6 v 1.001953 h 1.59375 l 1.554688,3.919922 h 0.691406 l 1.851562,-5.988282 h 3.197266 V 8 Z m 0.748046,3 1.626954,1.90625 L 11.556641,15 h 0.888671 L 13.779297,13.429688 15.113281,15 h 0.888672 L 14.257812,12.945312 15.916016,11 H 15.027344 L 13.8125,12.423828 12.597656,11 Z"/>
 <path style="opacity:0.2;fill:#f4f4f7" d="M 11,1 A 10,10 0 0 0 1,11 10,10 0 0 0 1.0107422,11.291016 10,10 0 0 1 11,1.5 10,10 0 0 1 20.989258,11.208985 10,10 0 0 0 21,11 10,10 0 0 0 11,1 Z"/>
</svg>

<svg xmlns="http://www.w3.org/2000/svg" width="22" height="22" version="1"><circle style="opacity:.2" cx="11" cy="11.5" r="10"/><circle style="fill:#8e8e8e" cx="11" cy="11" r="10"/><path style="opacity:.2" d="m10.96 8.5-1.556 4.969-1.156-2.895H6v1.002h1.594l1.554 3.92h.692l1.851-5.988h3.198V8.5zm.749 3 1.627 1.906-1.78 2.094h.89l1.333-1.57 1.334 1.57h.889l-1.744-2.055 1.658-1.945h-.889l-1.214 1.424-1.215-1.424z"/><path style="fill:#f4f4f7" d="m10.96 8-1.556 4.969-1.156-2.895H6v1.002h1.594l1.554 3.92h.692l1.851-5.988h3.198V8zm.749 3 1.627 1.906L11.556 15h.89l1.333-1.57L15.113 15h.889l-1.744-2.055L15.916 11h-.889l-1.214 1.424L12.598 11z"/><path style="opacity:.2;fill:#f4f4f7" d="M11 1A10 10 0 0 0 1 11a10 10 0 0 0 .01.291A10 10 0 0 1 11 1.5a10 10 0 0 1 9.99 9.709A10 10 0 0 0 21 11 10 10 0 0 0 11 1z"/></svg>
